outputs/icons/action/document_sharp.svg

<svg xmlns="http://www.w3.org/2000/svg" width="1200" height="1200" fill="none"><g clip-path="url(#a)"><path fill="#000" d="M700 100H200v1000h800V400zm100 800H400V800h400zm0-200H400V600h400zM650 450V175l275 275z"/></g><defs><clipPath id="a"><path fill="#fff" d="M0 0h1200v1200H0z"/></clipPath></defs></svg>

<svg width="1200" height="1200" viewBox="0 0 1200 1200" fill="none" xmlns="http://www.w3.org/2000/svg"><g clip-path="url(#clip0_117_773)"><path d="M700 100H200V1100H1000V400L700 100ZM800 900H400V800H800V900ZM800 700H400V600H800V700ZM650 450V175L925 450H650Z" fill="#1D1E23"/></g><defs><clipPath id="clip0_117_773"><path width="24" fill="white" d="M0 0H1200V1200H0V0z"/></clipPath></defs></svg>
